X:2
T:Geampara
R:geampara
O:Romania
Z:id:hn-geampara-2
M:2+2+3/16
L:1/16
Q:1/8=220
K:Gdor ^c
AAAG _BAG | D2E^F GGF | AAG^F DEF | G^FGA =B3 |
AAAG _BAG | ^FGA_B ^cde | =fed^c _BAG | G^FFE E3 :| !fine!
|: eeed =fed | ^cde=f eed | =fed^c _BAG | G^FFE =B3 |
eeed =fed | ^cde=f eed | =fed^c _BAG | G^FFE E3 :|

